markup/dist/img/web-app-dev.svg

<svg id="Слой_1" data-name="Слой 1" xmlns="http://www.w3.org/2000/svg" viewBox="0 0 512 512"><defs><style>.cls-3{fill:#4d4d4f}</style></defs><path d="M10 119.51h492v351.22H10z" fill="#fff"/><path d="M10 42h492v77.48H10zm43.14 276.82h108.8v108.81H53.14zm0-156.2H310.4v116.55H53.14zm148.46 156.2h108.8v108.81H201.6zm148.45 0h108.81v108.81H350.05z" fill="#c9dc7d"/><path class="cls-3" d="M502 325.21a10 10 0 0 0-10 10v125.5H20.06V335.24a10 10 0 0 0-20.06 0v135.49a10 10 0 0 0 10 10h492a10 10 0 0 0 10-10V335.24a10 10 0 0 0-10-10.03zM502 32H10A10 10 0 0 0 0 42v213a10 10 0 1 0 20.06 0V129.54h471.88V255a10 10 0 1 0 20.06 0V42a10 10 0 0 0-10-10zM20.06 109.48V52.06h471.88v57.42z"/><path class="cls-3" d="M459.84 70.74h-20.63a10 10 0 1 0 0 20.06h20.63a10 10 0 1 0 0-20.06zm-53.49 0h-20.64a10 10 0 1 0 0 20.06h20.64a10 10 0 0 0 0-20.06zm-53.49 0h-20.64a10 10 0 0 0 0 20.06h20.64a10 10 0 0 0 0-20.06zM43.11 427.63a10 10 0 0 0 10 10h108.8a10 10 0 0 0 10-10V318.82a10 10 0 0 0-10-10H53.14a10 10 0 0 0-10 10zm20.06-98.78h88.74v88.74H63.17zm257.26-166.23a10 10 0 0 0-10-10H53.14a10 10 0 0 0-10 10v116.55a10 10 0 0 0 10 10H310.4a10 10 0 0 0 10-10zm-20.06 106.52H63.17v-96.49h237.2zm10.03 39.65H201.6a10 10 0 0 0-10 10v108.84a10 10 0 0 0 10 10h108.8a10 10 0 0 0 10-10V318.82a10 10 0 0 0-10-10.03zm-10 108.8h-88.77v-88.74h88.74zm39.6 10.04a10 10 0 0 0 10 10h108.86a10 10 0 0 0 10-10V318.82a10 10 0 0 0-10-10H350.05a10 10 0 0 0-10 10zm20.06-98.78h88.74v88.74h-88.71zm-10.01-39.65h108.81a10 10 0 0 0 0-20.06H350.05a10 10 0 0 0 0 20.06zm0-38.85h108.81a10 10 0 0 0 0-20.06H350.05a10 10 0 0 0 0 20.06zm0-38.85h108.81a10 10 0 0 0 0-20.06H350.05a10 10 0 0 0 0 20.06zm0-38.85h108.81a10 10 0 0 0 0-20.06H350.05a10 10 0 0 0 0 20.06zM10 305.15a10 10 0 1 0-10-10 10.05 10.05 0 0 0 10 10zm492-20.06a10 10 0 1 0 10 10 10.05 10.05 0 0 0-10-10z"/></svg>

<svg id="Слой_1" data-name="Слой 1" xmlns="http://www.w3.org/2000/svg" viewBox="0 0 512 512"><defs><style>.cls-1{fill:#fff;}.cls-2{fill:#c9dc7d;}.cls-3{fill:#4d4d4f;}</style></defs><title>web-app-dev</title><path class="cls-1" d="M10,119.51H502V470.73H10Z"/><path class="cls-2" d="M10,42H502v77.48H10Z"/><path class="cls-2" d="M53.14,318.82h108.8V427.63H53.14Z"/><path class="cls-2" d="M53.14,162.62H310.4V279.17H53.14Z"/><path class="cls-2" d="M201.6,318.82H310.4V427.63H201.6Z"/><path class="cls-2" d="M350.05,318.82H458.86V427.63H350.05Z"/><path class="cls-3" d="M502,325.21a10,10,0,0,0-10,10V460.71H20.06V335.24a10,10,0,0,0-20.06,0V470.73a10,10,0,0,0,10,10H502a10,10,0,0,0,10-10V335.24A10,10,0,0,0,502,325.21Z"/><path class="cls-3" d="M502,32H10A10,10,0,0,0,0,42V255a10,10,0,1,0,20.06,0V129.54H491.94V255A10,10,0,1,0,512,255V42A10,10,0,0,0,502,32ZM20.06,109.48V52.06H491.94v57.42Z"/><path class="cls-3" d="M459.84,70.74H439.21a10,10,0,1,0,0,20.06h20.63a10,10,0,1,0,0-20.06Z"/><path class="cls-3" d="M406.35,70.74H385.71a10,10,0,1,0,0,20.06h20.64a10,10,0,0,0,0-20.06Z"/><path class="cls-3" d="M352.86,70.74H332.22a10,10,0,0,0,0,20.06h20.64a10,10,0,0,0,0-20.06Z"/><path class="cls-3" d="M43.11,427.63a10,10,0,0,0,10,10h108.8a10,10,0,0,0,10-10V318.82a10,10,0,0,0-10-10H53.14a10,10,0,0,0-10,10Zm20.06-98.78h88.74v88.74H63.17Z"/><path class="cls-3" d="M320.43,162.62a10,10,0,0,0-10-10H53.14a10,10,0,0,0-10,10V279.17a10,10,0,0,0,10,10H310.4a10,10,0,0,0,10-10ZM300.37,269.14H63.17V172.65h237.2Z"/><path class="cls-3" d="M310.4,308.79H201.6a10,10,0,0,0-10,10V427.63a10,10,0,0,0,10,10H310.4a10,10,0,0,0,10-10V318.82A10,10,0,0,0,310.4,308.79Zm-10,108.8H211.63V328.85h88.74Z"/><path class="cls-3" d="M340,427.63a10,10,0,0,0,10,10H458.86a10,10,0,0,0,10-10V318.82a10,10,0,0,0-10-10H350.05a10,10,0,0,0-10,10Zm20.06-98.78h88.74v88.74H360.09Z"/><path class="cls-3" d="M350.05,289.2H458.86a10,10,0,0,0,0-20.06H350.05a10,10,0,0,0,0,20.06Z"/><path class="cls-3" d="M350.05,250.35H458.86a10,10,0,0,0,0-20.06H350.05a10,10,0,0,0,0,20.06Z"/><path class="cls-3" d="M350.05,211.5H458.86a10,10,0,0,0,0-20.06H350.05a10,10,0,0,0,0,20.06Z"/><path class="cls-3" d="M350.05,172.65H458.86a10,10,0,0,0,0-20.06H350.05a10,10,0,0,0,0,20.06Z"/><path class="cls-3" d="M10,305.15a10,10,0,1,0-10-10A10.05,10.05,0,0,0,10,305.15Z"/><path class="cls-3" d="M502,285.09a10,10,0,1,0,10,10A10.05,10.05,0,0,0,502,285.09Z"/></svg>
